;FLAVOR:Marlin
;TIME:298
;Filament used: 0.0463737m
;Layer height: 0.2
;MINX:113.65
;MINY:114.488
;MINZ:0.2
;MAXX:121.35
;MAXY:120.511
;MAXZ:5
;Generated with Cura_SteamEngine 4.8.0
M140 S65
M105
M190 S65
M104 S212
M105
M109 S212
M82 ;absolute extrusion mode
; Ender 3 Custom Start G-code
G92 E0 ; Reset Extruder
G28 ; Home all axes
G1 Z2.0 F3000 ; Move Z Axis up little to prevent scratching of Heat Bed
G1 X0.1 Y20 Z0.3 F5000.0 ; Move to start position
G1 X0.1 Y200.0 Z0.3 F1500.0 E15 ; Draw the first line
G1 X0.4 Y200.0 Z0.3 F5000.0 ; Move to side a little
G1 X0.4 Y20 Z0.3 F1500.0 E30 ; Draw the second line
G92 E0 ; Reset Extruder
G1 Z2.0 F3000 ; Move Z Axis up little to prevent scratching of Heat Bed
G1 X5 Y20 Z0.3 F5000.0 ; Move over to prevent blob squish
G92 E0
G92 E0
G1 F2700 E-5
;LAYER_COUNT:25
;LAYER:0
M107
;MESH:0199a4fb-215a-4207-860e-14aad7695488.stl
G0 F6000 X118.921 Y117.11 Z0.2
;TYPE:WALL-INNER
G1 F2700 E0
G1 F300 X119.283 Y117.137 E0.00996
G1 X119.46 Y117.15 E0.01483
G1 X119.668 Y117.168 E0.02056
G1 X119.762 Y117.177 E0.02315
G1 X120.012 Y117.243 E0.03025
G1 X120.047 Y117.259 E0.0313
G1 X120.255 Y117.357 E0.03761
G1 X120.387 Y117.449 E0.04203
G1 X120.465 Y117.503 E0.04463
G1 X120.655 Y117.693 E0.052
G1 X120.669 Y117.714 E0.05269
G1 X120.806 Y117.908 E0.05921
G1 X120.872 Y118.048 E0.06346
G1 X120.917 Y118.143 E0.06634
G1 X120.984 Y118.394 E0.07347
G1 X120.986 Y118.419 E0.07416
G1 X121.009 Y118.659 E0.08077
G1 X120.997 Y118.808 E0.08488
G1 X120.987 Y118.915 E0.08783
G1 X120.918 Y119.176 E0.09523
G1 X120.912 Y119.189 E0.09563
G1 X120.807 Y119.416 E0.10249
G1 X120.727 Y119.531 E0.10633
G1 X120.661 Y119.625 E0.10948
G1 X120.477 Y119.81 E0.11664
G1 X120.462 Y119.82 E0.11714
G1 X120.258 Y119.965 E0.12401
G1 X120.133 Y120.024 E0.1278
G1 X120.026 Y120.076 E0.13106
G1 X119.77 Y120.145 E0.13834
G1 X119.505 Y120.171 E0.14565
G1 X119.375 Y120.161 E0.14922
G1 X119.251 Y120.15 E0.15264
G1 X119.035 Y120.094 E0.15876
G1 X118.992 Y120.082 E0.15999
G1 X118.891 Y120.034 E0.16306
G1 X118.996 Y120.066 E0.1631
G1 X119.038 Y120.079 E0.16313
G1 X119.256 Y120.126 E0.16352
G1 X119.375 Y120.152 E0.16365
G1 X119.503 Y120.147 E0.1638
G1 X119.762 Y120.134 E0.1641
G1 X120.018 Y120.053 E0.16462
G1 X120.129 Y120.017 E0.16473
G1 X120.244 Y119.944 E0.16491
G1 X120.455 Y119.811 E0.16527
G1 X120.465 Y119.8
G1 X120.643 Y119.609 E0.16572
G1 X120.719 Y119.527 E0.16582
G1 X120.783 Y119.404 E0.16603
G1 X120.9 Y119.184 E0.16642
G1 X120.902 Y119.173
G1 X120.963 Y118.91 E0.16686
G1 X120.987 Y118.808 E0.16697
G1 X120.983 Y118.66 E0.16717
G1 X120.974 Y118.421 E0.16753
G1 X120.968 Y118.399
G1 X120.894 Y118.151 E0.16795
G1 X120.864 Y118.052 E0.16807
G1 X120.784 Y117.922 E0.16826
G1 X120.66 Y117.721 E0.16861
G1 X120.644 Y117.706
G1 X120.449 Y117.521 E0.16909
G1 X120.382 Y117.457 E0.16919
G1 X120.243 Y117.38 E0.16937
G1 X120.043 Y117.27 E0.1697
G1 X120.008 Y117.262
G1 X119.757 Y117.199 E0.17015
G1 X119.668 Y117.177 E0.17022
G1 X119.461 Y117.18 E0.17055
G1 X119.28 Y117.184 E0.17118
G1 X118.908 Y117.29 E0.17515
G1 X118.828 Y117.337 E0.17769
G1 X118.576 Y117.487 E0.18574
G1 X118.326 Y117.743 E0.19556
G1 X118.152 Y117.982 E0.20367
G1 X117.984 Y118.129 E0.20979
G1 X117.784 Y118.229 E0.21593
G1 X117.575 Y118.273 E0.22179
G1 X117.353 Y118.264 E0.22789
G1 X117.147 Y118.201 E0.2338
G1 X116.961 Y118.088 E0.23977
G1 X116.788 Y117.909 E0.2466
G1 X116.608 Y117.662 E0.25499
G1 X116.319 Y117.413 E0.26546
G1 X116.186 Y117.348 E0.26952
G1 X115.972 Y117.244 E0.27605
G1 X115.698 Y117.192 E0.2837
G1 X115.591 Y117.171 E0.28669
G1 X115.379 Y117.185 E0.29252
G1 X115.205 Y117.198 E0.29731
G1 X115.113 Y117.229 E0.29997
G1 X114.871 Y117.311 E0.30698
G1 X114.839 Y117.322 E0.30791
G1 X114.656 Y117.445 E0.31396
G1 X114.519 Y117.537 E0.31849
G1 X114.451 Y117.614 E0.32131
G1 X114.283 Y117.802 E0.32823
G1 X114.262 Y117.826 E0.3291
G1 X114.156 Y118.036 E0.33556
G1 X114.088 Y118.171 E0.33971
G1 X114.067 Y118.275 E0.34262
G1 X114.015 Y118.526 E0.34965
G1 X114.01 Y118.55 E0.35032
G1 X114.022 Y118.787 E0.35683
G1 X114.031 Y118.936 E0.36093
G1 X114.065 Y119.04 E0.36393
G1 X114.147 Y119.291 E0.37118
G1 X114.151 Y119.304 E0.37155
G1 X114.279 Y119.503 E0.37804
G1 X114.36 Y119.629 E0.38215
G1 X114.446 Y119.707 E0.38534
G1 X114.647 Y119.889 E0.39278
G1 X114.862 Y120 E0.39942
G1 X114.989 Y120.066 E0.40335
G1 X115.106 Y120.092 E0.40664
G1 X115.366 Y120.15 E0.41395
G1 X115.62 Y120.141 E0.42092
G1 X115.753 Y120.135 E0.42457
G1 X115.876 Y120.097 E0.42811
G1 X116.038 Y120.047 E0.43276
G1 X116.086 Y120.049 E0.43408
G1 X116.045 Y120.063
G1 X115.884 Y120.121 E0.4344
G1 X115.755 Y120.143 E0.43459
G1 X115.622 Y120.166 E0.43479
G1 X115.362 Y120.164 E0.4353
G1 X115.101 Y120.116 E0.43572
G1 X114.987 Y120.074 E0.43591
G1 X114.85 Y120.024 E0.43614
G1 X114.636 Y119.899 E0.43662
G1 X114.431 Y119.725 E0.437
G1 X114.355 Y119.634 E0.43717
G1 X114.257 Y119.518 E0.43739
G1 X114.139 Y119.311 E0.43781
G1 X114.131 Y119.297
G1 X114.042 Y119.048 E0.43826
G1 X114.023 Y118.938 E0.43844
G1 X113.997 Y118.789 E0.43867
G1 X113.997 Y118.55 E0.43907
G1 X113.998 Y118.523
G1 X114.043 Y118.271 E0.4395
G1 X114.08 Y118.169 E0.43967
G1 X114.133 Y118.025 E0.43991
G1 X114.252 Y117.821 E0.4403
G1 X114.27 Y117.791
G1 X114.432 Y117.598 E0.44071
G1 X114.513 Y117.531 E0.44089
G1 X114.641 Y117.423 E0.44115
G1 X114.833 Y117.313 E0.44149
G1 X114.865 Y117.294
G1 X115.105 Y117.206 E0.44193
G1 X115.203 Y117.189 E0.44211
G1 X115.377 Y117.159 E0.44239
G1 X115.59 Y117.15 E0.44282
G1 X115.706 Y117.145 E0.44326
G1 X115.957 Y117.117 E0.44488
G1 X116.318 Y117.075 E0.4521
G1 X116.318 Y115.393 E0.49826
G1 X118.682 Y115.393 E0.56312
G1 X118.682 Y117.093 E0.60977
G1 X118.921 Y117.11 E0.61505
G0 F6000 X119.007 Y116.791
;TYPE:WALL-OUTER
G1 F300 X119.488 Y116.826 E0.62828
G1 X119.818 Y116.855 E0.63737
G1 X120.122 Y116.936 E0.646
G1 X120.421 Y117.076 E0.65506
G1 X120.674 Y117.252 E0.66352
G1 X120.904 Y117.482 E0.67244
G1 X121.088 Y117.744 E0.68123
G1 X121.223 Y118.03 E0.68991
G1 X121.306 Y118.339 E0.69869
G1 X121.335 Y118.656 E0.70742
G1 X121.309 Y118.97 E0.71607
G1 X121.225 Y119.285 E0.72501
G1 X121.091 Y119.577 E0.73383
G1 X120.911 Y119.834 E0.74244
G1 X120.686 Y120.06 E0.75119
G1 X120.424 Y120.246 E0.76
G1 X120.136 Y120.383 E0.76876
G1 X119.827 Y120.467 E0.77754
G1 X119.51 Y120.497 E0.78628
G1 X119.198 Y120.472 E0.79487
G1 X118.882 Y120.389 E0.80383
G1 X118.693 Y120.302 E0.80954
G1 X118.577 Y120.166 E0.81445
G1 X118.547 Y120 E0.81908
G1 X118.604 Y119.84 E0.82374
G1 X118.735 Y119.728 E0.82847
G1 X118.904 Y119.697 E0.83318
G1 X119.121 Y119.764 E0.83941
G1 X119.402 Y119.825 E0.8473
G1 X119.704 Y119.811 E0.8556
G1 X119.991 Y119.72 E0.86386
G1 X120.246 Y119.559 E0.87213
G1 X120.452 Y119.337 E0.88044
G1 X120.593 Y119.07 E0.88873
G1 X120.661 Y118.776 E0.89701
G1 X120.651 Y118.474 E0.9053
G1 X120.565 Y118.186 E0.91355
G1 X120.406 Y117.928 E0.92186
G1 X120.188 Y117.721 E0.93011
G1 X119.924 Y117.575 E0.93839
G1 X119.631 Y117.503 E0.94667
G1 X119.328 Y117.508 E0.95499
G1 X119.038 Y117.591 E0.96326
G1 X118.779 Y117.745 E0.97153
G1 X118.575 Y117.954 E0.97955
G1 X118.392 Y118.204 E0.98805
G1 X118.167 Y118.401 E0.99625
G1 X117.892 Y118.538 E1.00468
G1 X117.602 Y118.6 E1.01282
G1 X117.3 Y118.587 E1.02111
G1 X117.012 Y118.5 E1.02937
G1 X116.756 Y118.344 E1.0376
G1 X116.54 Y118.12 E1.04613
G1 X116.368 Y117.884 E1.05415
G1 X116.139 Y117.687 E1.06244
G1 X115.868 Y117.555 E1.07071
G1 X115.571 Y117.498 E1.07901
G1 X115.27 Y117.519 E1.08729
G1 X114.984 Y117.616 E1.09557
G1 X114.734 Y117.784 E1.10384
G1 X114.533 Y118.01 E1.11214
G1 X114.398 Y118.279 E1.1204
G1 X114.337 Y118.575 E1.12869
G1 X114.353 Y118.876 E1.13696
G1 X114.447 Y119.163 E1.14525
G1 X114.61 Y119.417 E1.15353
G1 X114.834 Y119.62 E1.16182
G1 X115.101 Y119.758 E1.17007
G1 X115.396 Y119.824 E1.17836
G1 X115.698 Y119.812 E1.18666
G1 X115.957 Y119.732 E1.1941
G1 X116.155 Y119.698 E1.19961
G1 X116.315 Y119.758 E1.2043
G1 X116.425 Y119.889 E1.20899
G1 X116.453 Y120.056 E1.21364
G1 X116.393 Y120.217 E1.21835
G1 X116.25 Y120.335 E1.22344
G1 X115.967 Y120.436 E1.23168
G1 X115.647 Y120.491 E1.24059
G1 X115.329 Y120.489 E1.24932
G1 X115.018 Y120.432 E1.258
G1 X114.713 Y120.32 E1.26691
G1 X114.445 Y120.163 E1.27543
G1 X114.198 Y119.954 E1.28431
G1 X113.991 Y119.706 E1.29318
G1 X113.834 Y119.431 E1.30187
G1 X113.727 Y119.134 E1.31053
G1 X113.672 Y118.814 E1.31944
G1 X113.673 Y118.494 E1.32822
G1 X113.728 Y118.186 E1.3368
G1 X113.839 Y117.884 E1.34563
G1 X114.002 Y117.604 E1.35452
G1 X114.202 Y117.366 E1.36305
G1 X114.45 Y117.159 E1.37192
G1 X114.729 Y116.998 E1.38075
G1 X115.023 Y116.891 E1.38934
G1 X115.345 Y116.835 E1.39831
G1 X115.681 Y116.821 E1.40754
G1 X115.993 Y116.785 E1.41615
G1 X115.993 Y115.068 E1.46327
G1 X119.007 Y115.068 E1.54597
G1 X119.007 Y116.791 E1.59325
G0 F6000 X118.362 Y117.247
;TYPE:SKIN
G1 F300 X118.081 Y117.536 E1.60431
G1 X117.918 Y117.762 E1.61196
G1 X117.675 Y117.925 E1.61998
G1 X117.407 Y117.946 E1.62736
G1 X117.165 Y117.837 E1.63464
G1 X117.026 Y117.693 E1.64014
G1 X116.845 Y117.443 E1.6486
G1 X116.638 Y117.265 E1.6561
G1 X116.638 Y115.713 E1.69868
G1 X118.362 Y115.713 E1.74599
G1 X118.362 Y117.247 E1.78808
G0 F6000 X118.595 Y117.174
G0 X117.918 Y118.027
G0 X117.599 Y118.138
G0 X117.06 Y118.077
G0 X117.27 Y117.736
G1 F300 X117.111 Y117.577 E1.79425
G0 F6000 X117.726 Y117.726
G1 F300 X116.772 Y116.772 E1.83127
G0 F6000 X116.772 Y116.305
G1 F300 X117.951 Y117.485 E1.87704
G0 F6000 X118.177 Y117.243
G1 F300 X116.781 Y115.848 E1.93119
G0 F6000 X117.248 Y115.848
G1 F300 X118.226 Y116.826 E1.96915
G0 F6000 X118.226 Y116.36
G1 F300 X117.714 Y115.848 E1.98902
G0 F6000 X117.714 Y115.453
G0 X118.55 Y115.525
G0 X118.622 Y117.238
G0 X118.511 Y117.238
;TYPE:SKIN
G1 F300 X118.591 Y117.318 E1.99043
G0 F6000 X118.63 Y117.385
G0 X117.918 Y118.027
G0 X117.563 Y118.151
G0 X117.197 Y118.09
G0 X116.414 Y117.415
G0 X116.485 Y117.334
G1 F300 X116.357 Y117.206 E1.99268
G0 F6000 X116.349 Y117.132
G0 X115.233 Y117.332
G0 X114.9 Y117.445
G0 X114.609 Y117.64
G0 X114.375 Y117.903
G0 X114.218 Y118.216
G0 X114.147 Y118.562
G0 X114.165 Y118.911
G0 X114.274 Y119.245
G0 X114.465 Y119.54
G0 X114.726 Y119.776
G0 X115.036 Y119.937
G0 X116.196 Y120.029
G0 X116.222 Y120.04
G1 F300 X116.278 Y120.096 E1.99367
G0 F6000 X116.038 Y120.209
;MESH:NONMESH
G0 F300 X116.038 Y120.209 Z0.4
G0 F6000 X116.019 Y120.152
G0 X115.036 Y119.937
G0 X114.726 Y119.776
G0 X114.465 Y119.54
G0 X114.274 Y119.245
G0 X114.165 Y118.911
G0 X114.147 Y118.562
G0 X114.218 Y118.216
G0 X114.375 Y117.903
G0 X114.609 Y117.64
G0 X114.9 Y117.445
G0 X115.233 Y117.332
G0 X115.582 Y117.308
G0 X115.928 Y117.374
G0 X117.673 Y118.407
G0 X118.942 Y117.071
;TIME_ELAPSED:22.862095
;LAYER:1
M106 S85
;TYPE:WALL-INNER
;MESH:0199a4fb-215a-4207-860e-14aad7695488.stl
G1 F600 X119.296 Y117.097 E2.00253
G1 X119.463 Y117.11 E2.0067
G1 X119.67 Y117.128 E2.01189
G1 X119.766 Y117.137 E2.01429
G1 X120.029 Y117.207 E2.02108
G1 X120.066 Y117.224 E2.0221
G1 X120.275 Y117.322 E2.02786
G1 X120.409 Y117.415 E2.03192
G1 X120.494 Y117.474 E2.03451
G1 X120.683 Y117.663 E2.04117
G1 X120.704 Y117.694 E2.04211
G1 X120.838 Y117.883 E2.04789
G1 X120.907 Y118.031 E2.05196
G1 X120.953 Y118.129 E2.05466
G1 X121.026 Y118.395 E2.06154
G1 X121.028 Y118.419 E2.06214
G1 X121.049 Y118.656 E2.06808
G1 X121.036 Y118.811 E2.07196
G1 X121.026 Y118.924 E2.07479
G1 X120.956 Y119.191 E2.08167
G1 X120.947 Y119.21 E2.0822
G1 X120.847 Y119.426 E2.08813
G1 X120.759 Y119.553 E2.09199
G1 X120.691 Y119.65 E2.09494
G1 X120.496 Y119.846 E2.10184
G1 X120.484 Y119.854 E2.1022
G1 X120.282 Y119.998 E2.10839
G1 X120.152 Y120.06 E2.11198
G1 X120.038 Y120.114 E2.11513
G1 X119.775 Y120.186 E2.12193
G1 X119.764 Y120.187 E2.12221
G1 X119.513 Y120.21 E2.12849
G1 X119.371 Y120.199 E2.13205
G1 X119.236 Y120.188 E2.13542
G1 X119.024 Y120.132 E2.14089
G1 X118.983 Y120.121 E2.14195
G1 X118.857 Y120.034 E2.14577
G1 X118.841 Y120.023 E2.14626
G1 X118.887 Y119.99
G1 X119.011 Y120.027 E2.14688
G1 X119.048 Y120.039 E2.14715
G1 X119.258 Y120.085 E2.1489
G1 X119.377 Y120.112 E2.14978
G1 X119.508 Y120.106 E2.15073
G1 X119.755 Y120.094 E2.15272
G1 X120.006 Y120.015 E2.15482
G1 X120.113 Y119.98 E2.1556
G1 X120.225 Y119.909 E2.15657
G1 X120.431 Y119.78 E2.15853
G1 X120.615 Y119.581 E2.16068
G1 X120.686 Y119.503 E2.1614
G1 X120.753 Y119.377 E2.16246
G1 X120.862 Y119.171 E2.16436
G1 X120.924 Y118.901 E2.16673
G1 X120.947 Y118.804 E2.16741
G1 X120.943 Y118.66 E2.16849
G1 X120.935 Y118.428 E2.17038
G1 X120.855 Y118.159 E2.17279
G1 X120.827 Y118.069 E2.17342
G1 X120.748 Y117.939 E2.17457
G1 X120.63 Y117.747 E2.17637
G1 X120.616 Y117.734
G1 X120.423 Y117.55 E2.17862
G1 X120.358 Y117.489 E2.17922
G1 X120.224 Y117.415 E2.18039
G1 X120.028 Y117.307 E2.18216
G1 X120.006 Y117.302
G1 X119.742 Y117.237 E2.18443
G1 X119.663 Y117.217 E2.18495
G1 X119.466 Y117.22 E2.1865
G1 X119.287 Y117.224 E2.18836
G1 X118.924 Y117.327 E2.19454
G1 X118.866 Y117.361 E2.19622
G1 X118.601 Y117.519 E2.20391
G1 X118.356 Y117.77 E2.21266
G1 X118.184 Y118.006 E2.21995
G1 X118 Y118.166 E2.22603
G1 X117.8 Y118.267 E2.23162
G1 X117.579 Y118.313 E2.23725
G1 X117.347 Y118.304 E2.24304
G1 X117.129 Y118.238 E2.24872
G1 X116.936 Y118.119 E2.25438
G1 X116.758 Y117.935 E2.26077
G1 X116.581 Y117.692 E2.26826
G1 X116.298 Y117.448 E2.27759
G1 X116.104 Y117.353 E2.28297
G1 X115.959 Y117.282 E2.287
G1 X115.686 Y117.23 E2.29393
G1 X115.588 Y117.211 E2.29642
G1 X115.384 Y117.225 E2.30153
G1 X115.214 Y117.237 E2.30578
G1 X115.129 Y117.266 E2.30802
G1 X114.881 Y117.35 E2.31455
G1 X114.857 Y117.358 E2.31518
G1 X114.669 Y117.483 E2.32081
G1 X114.545 Y117.567 E2.32455
G1 X114.49 Y117.629 E2.32661
G1 X114.304 Y117.839 E2.33361
G1 X114.296 Y117.848 E2.33391
G1 X114.195 Y118.049 E2.33952
G1 X114.126 Y118.185 E2.34333
G1 X114.107 Y118.28 E2.34575
G1 X114.053 Y118.542 E2.35242
G1 X114.05 Y118.553 E2.3527
G1 X114.062 Y118.784 E2.35847
G1 X114.071 Y118.929 E2.3621
G1 X114.103 Y119.03 E2.36474
G1 X114.187 Y119.287 E2.37148
G1 X114.317 Y119.488 E2.37746
G1 X114.392 Y119.603 E2.38088
G1 X114.468 Y119.672 E2.38344
G1 X114.67 Y119.855 E2.39024
G1 X114.883 Y119.966 E2.39623
G1 X115.002 Y120.028 E2.39958
G1 X115.116 Y120.053 E2.40249
G1 X115.37 Y120.11 E2.40898
G1 X115.618 Y120.101 E2.41517
G1 X115.747 Y120.095 E2.4184
G1 X115.861 Y120.06 E2.42137
G1 X116.023 Y120.01 E2.4256
G1 X116.107 Y120.01 E2.42769
G1 X116.156 Y120.011 E2.42892
G1 X116.115 Y120.072 E2.42947
G1 X116.107 Y120.083
G1 X116.056 Y120.101 E2.4296
G1 X115.892 Y120.16 E2.4311
G1 X115.762 Y120.182 E2.43225
G1 X115.623 Y120.206 E2.4335
G1 X115.37 Y120.205 E2.43565
G1 X115.36 Y120.204
G1 X115.094 Y120.155 E2.43797
G1 X114.972 Y120.111 E2.43912
G1 X114.835 Y120.06 E2.44041
G1 X114.623 Y119.936 E2.44248
G1 X114.605 Y119.925
G1 X114.398 Y119.751 E2.44472
G1 X114.323 Y119.661 E2.44579
G1 X114.228 Y119.547 E2.4471
G1 X114.107 Y119.334 E2.44916
G1 X114.093 Y119.31
G1 X114.004 Y119.063 E2.45128
G1 X113.984 Y118.945 E2.45235
G1 X113.957 Y118.79 E2.45372
G1 X113.957 Y118.553 E2.45573
G1 X113.958 Y118.523
G1 X114.005 Y118.26 E2.45794
G1 X114.043 Y118.155 E2.45896
G1 X114.1 Y118.002 E2.46037
G1 X114.216 Y117.802 E2.46233
G1 X114.231 Y117.776
G1 X114.412 Y117.561 E2.46467
G1 X114.487 Y117.499 E2.46558
G1 X114.61 Y117.396 E2.46697
G1 X114.811 Y117.28 E2.46891
G1 X114.849 Y117.257
G1 X115.095 Y117.168 E2.4711
G1 X115.198 Y117.15 E2.47206
G1 X115.376 Y117.119 E2.47361
G1 X115.583 Y117.11 E2.47542
G1 X115.71 Y117.104 E2.47686
G1 X115.936 Y117.079 E2.47976
G1 X116.097 Y117.061 E2.48318
G1 X116.278 Y117.04 E2.48773
